web/assets/img/functions/970_4-on.svg

<svg width="512" height="512" viewBox="0 0 512 512" fill="none" xmlns="http://www.w3.org/2000/svg">
    <path fill-rule="evenodd" clip-rule="evenodd"
          d="M4 76C4 70.4772 8.47715 66 14 66H498C503.523 66 508 70.4772 508 76V436C508 441.523 503.523 446 498 446H14C8.47715 446 4 441.523 4 436V76ZM24 86V426H488V86H24Z"
          fill="#282828"/>
    <path fill-rule="evenodd" clip-rule="evenodd"
          d="M183.998 278.785V392.812H203.998V278.786L284.625 359.414L298.768 345.271L218.139 264.643H332.166V244.643H218.141L298.769 164.014L284.627 149.872L203.998 230.501V116.474H183.998V230.502L103.367 149.871L89.2251 164.013L169.854 244.643H55.8281V264.643H169.856L89.2266 345.272L103.369 359.415L183.998 278.785Z"
          fill="#12A71E"/>
    <path fill-rule="evenodd" clip-rule="evenodd"
          d="M194 126C122.203 126 64 184.203 64 256C64 327.797 122.203 386 194 386C265.797 386 324 327.797 324 256C324 184.203 265.797 126 194 126ZM44 256C44 173.157 111.157 106 194 106C276.843 106 344 173.157 344 256C344 338.843 276.843 406 194 406C111.157 406 44 338.843 44 256Z"
          fill="#282828"/>
    <path fill-rule="evenodd" clip-rule="evenodd"
          d="M194 166C144.294 166 104 206.294 104 256C104 305.706 144.294 346 194 346C243.706 346 284 305.706 284 256C284 206.294 243.706 166 194 166ZM84 256C84 195.249 133.249 146 194 146C254.751 146 304 195.249 304 256C304 316.751 254.751 366 194 366C133.249 366 84 316.751 84 256Z"
          fill="#282828"/>
    <path fill-rule="evenodd" clip-rule="evenodd"
          d="M194 206C166.386 206 144 228.386 144 256C144 283.614 166.386 306 194 306C221.614 306 244 283.614 244 256C244 228.386 221.614 206 194 206ZM124 256C124 217.34 155.34 186 194 186C232.66 186 264 217.34 264 256C264 294.66 232.66 326 194 326C155.34 326 124 294.66 124 256Z"
          fill="#282828"/>
    <path fill-rule="evenodd" clip-rule="evenodd"
          d="M194 246C188.477 246 184 250.477 184 256C184 261.523 188.477 266 194 266C199.523 266 204 261.523 204 256C204 250.477 199.523 246 194 246ZM164 256C164 239.431 177.431 226 194 226C210.569 226 224 239.431 224 256C224 272.569 210.569 286 194 286C177.431 286 164 272.569 164 256Z"
          fill="#282828"/>
    <path fill-rule="evenodd" clip-rule="evenodd"
          d="M367 172C367 166.477 371.477 162 377 162H457C462.523 162 467 166.477 467 172C467 177.523 462.523 182 457 182H377C371.477 182 367 177.523 367 172Z"
          fill="#282828"/>
    <path fill-rule="evenodd" clip-rule="evenodd"
          d="M367 228C367 222.477 371.477 218 377 218H457C462.523 218 467 222.477 467 228C467 233.523 462.523 238 457 238H377C371.477 238 367 233.523 367 228Z"
          fill="#282828"/>
    <path fill-rule="evenodd" clip-rule="evenodd"
          d="M367 284C367 278.477 371.477 274 377 274H457C462.523 274 467 278.477 467 284C467 289.523 462.523 294 457 294H377C371.477 294 367 289.523 367 284Z"
          fill="#282828"/>
    <path fill-rule="evenodd" clip-rule="evenodd"
          d="M367 340C367 334.477 371.477 330 377 330H457C462.523 330 467 334.477 467 340C467 345.523 462.523 350 457 350H377C371.477 350 367 345.523 367 340Z"
          fill="#282828"/>
    <path fill-rule="evenodd" clip-rule="evenodd"
          d="M389.904 27.2841C394.718 29.9917 396.425 36.0889 393.717 40.9024L388.556 50.0772C385.119 56.1878 386.405 63.8679 391.645 68.5257C403.916 79.4333 406.927 97.4181 398.878 111.728L393.717 120.902C391.01 125.716 384.912 127.423 380.099 124.716C375.285 122.008 373.578 115.911 376.286 111.097L381.446 101.922C384.884 95.8118 383.598 88.1318 378.358 83.4739C366.087 72.5663 363.076 54.5816 371.125 40.2719L376.286 31.0972C378.993 26.2836 385.09 24.5764 389.904 27.2841Z"
          fill="#EB3A28"/>
    <path fill-rule="evenodd" clip-rule="evenodd"
          d="M421.904 27.2841C426.718 29.9917 428.425 36.0889 425.717 40.9024L420.556 50.0772C417.119 56.1878 418.405 63.8679 423.645 68.5257C435.916 79.4333 438.927 97.4181 430.878 111.728L425.717 120.902C423.01 125.716 416.912 127.423 412.099 124.716C407.285 122.008 405.578 115.911 408.286 111.097L413.446 101.922C416.884 95.8118 415.598 88.1318 410.358 83.4739C398.087 72.5663 395.076 54.5816 403.125 40.2719L408.286 31.0972C410.993 26.2836 417.09 24.5764 421.904 27.2841Z"
          fill="#EB3A28"/>
    <path fill-rule="evenodd" clip-rule="evenodd"
          d="M453.904 27.2841C458.718 29.9917 460.425 36.0889 457.717 40.9024L452.556 50.0772C449.119 56.1878 450.405 63.8679 455.645 68.5257C467.916 79.4333 470.927 97.4181 462.878 111.728L457.717 120.902C455.01 125.716 448.912 127.423 444.099 124.716C439.285 122.008 437.578 115.911 440.286 111.097L445.446 101.922C448.884 95.8118 447.598 88.1318 442.358 83.4739C430.087 72.5663 427.076 54.5816 435.125 40.2719L440.286 31.0972C442.993 26.2836 449.09 24.5764 453.904 27.2841Z"
          fill="#EB3A28"/>
</svg>

<?xml version="1.0" encoding="utf-8"?>
<!-- Generator: Adobe Illustrator 28.2.0, SVG Export Plug-In . SVG Version: 6.00 Build 0)  -->
<svg version="1.1" id="Calque_1" xmlns="http://www.w3.org/2000/svg" xmlns:xlink="http://www.w3.org/1999/xlink" x="0px" y="0px"
	 viewBox="0 0 512 512" style="enable-background:new 0 0 512 512;" xml:space="preserve">
<style type="text/css">
	.st0{fill-rule:evenodd;clip-rule:evenodd;fill:#282828;}
	.st1{fill-rule:evenodd;clip-rule:evenodd;fill:#33B0DF;}
	.st2{fill-rule:evenodd;clip-rule:evenodd;fill:#EB3A28;}
</style>
<path class="st0" d="M4,76c0-5.5,4.5-10,10-10h484c5.5,0,10,4.5,10,10v360c0,5.5-4.5,10-10,10H14c-5.5,0-10-4.5-10-10V76z M24,86
	v340h464V86H24z"/>
<path class="st1" d="M184,278.8v114h20v-114l80.6,80.6l14.1-14.1l-80.6-80.6h114v-20h-114l80.6-80.6l-14.1-14.1L204,230.5v-114h-20
	v114l-80.6-80.6L89.2,164l80.6,80.6h-114v20h114l-80.6,80.6l14.1,14.1L184,278.8z"/>
<path class="st0" d="M194,126c-71.8,0-130,58.2-130,130s58.2,130,130,130s130-58.2,130-130S265.8,126,194,126z M44,256
	c0-82.8,67.2-150,150-150s150,67.2,150,150s-67.2,150-150,150S44,338.8,44,256z"/>
<path class="st0" d="M194,166c-49.7,0-90,40.3-90,90s40.3,90,90,90s90-40.3,90-90S243.7,166,194,166z M84,256
	c0-60.8,49.2-110,110-110s110,49.2,110,110s-49.2,110-110,110S84,316.8,84,256z"/>
<path class="st0" d="M194,206c-27.6,0-50,22.4-50,50s22.4,50,50,50s50-22.4,50-50S221.6,206,194,206z M124,256c0-38.7,31.3-70,70-70
	s70,31.3,70,70s-31.3,70-70,70S124,294.7,124,256z"/>
<path class="st0" d="M194,246c-5.5,0-10,4.5-10,10c0,5.5,4.5,10,10,10s10-4.5,10-10C204,250.5,199.5,246,194,246z M164,256
	c0-16.6,13.4-30,30-30s30,13.4,30,30s-13.4,30-30,30S164,272.6,164,256z"/>
<path class="st0" d="M367,172c0-5.5,4.5-10,10-10h80c5.5,0,10,4.5,10,10s-4.5,10-10,10h-80C371.5,182,367,177.5,367,172z"/>
<path class="st0" d="M367,228c0-5.5,4.5-10,10-10h80c5.5,0,10,4.5,10,10s-4.5,10-10,10h-80C371.5,238,367,233.5,367,228z"/>
<path class="st0" d="M367,284c0-5.5,4.5-10,10-10h80c5.5,0,10,4.5,10,10s-4.5,10-10,10h-80C371.5,294,367,289.5,367,284z"/>
<path class="st0" d="M367,340c0-5.5,4.5-10,10-10h80c5.5,0,10,4.5,10,10s-4.5,10-10,10h-80C371.5,350,367,345.5,367,340z"/>
<path class="st2" d="M389.9,27.3c4.8,2.7,6.5,8.8,3.8,13.6l-5.2,9.2c-3.4,6.1-2.2,13.8,3.1,18.4c12.3,10.9,15.3,28.9,7.2,43.2
	l-5.2,9.2c-2.7,4.8-8.8,6.5-13.6,3.8c-4.8-2.7-6.5-8.8-3.8-13.6l5.2-9.2c3.4-6.1,2.2-13.8-3.1-18.4c-12.3-10.9-15.3-28.9-7.2-43.2
	l5.2-9.2C379,26.3,385.1,24.6,389.9,27.3z"/>
<path class="st2" d="M421.9,27.3c4.8,2.7,6.5,8.8,3.8,13.6l-5.2,9.2c-3.4,6.1-2.2,13.8,3.1,18.4c12.3,10.9,15.3,28.9,7.2,43.2
	l-5.2,9.2c-2.7,4.8-8.8,6.5-13.6,3.8c-4.8-2.7-6.5-8.8-3.8-13.6l5.2-9.2c3.4-6.1,2.2-13.8-3.1-18.4c-12.3-10.9-15.3-28.9-7.2-43.2
	l5.2-9.2C411,26.3,417.1,24.6,421.9,27.3z"/>
<path class="st2" d="M453.9,27.3c4.8,2.7,6.5,8.8,3.8,13.6l-5.2,9.2c-3.4,6.1-2.2,13.8,3.1,18.4c12.3,10.9,15.3,28.9,7.2,43.2
	l-5.2,9.2c-2.7,4.8-8.8,6.5-13.6,3.8c-4.8-2.7-6.5-8.8-3.8-13.6l5.2-9.2c3.4-6.1,2.2-13.8-3.1-18.4c-12.3-10.9-15.3-28.9-7.2-43.2
	l5.2-9.2C443,26.3,449.1,24.6,453.9,27.3z"/>
</svg>
